icons/test-tube-line.svg

<svg viewBox="0 0 24 24" fill="currentColor" xmlns="http://www.w3.org/2000/svg">
    <path d="M17 2V4H16V18C16 20.2091 14.2091 22 12 22C9.79086 22 8 20.2091 8 18V4H7V2H17ZM14 10H10V18C10 19.1046 10.8954 20 12 20C13.1046 20 14 19.1046 14 18V10ZM13 15C13.5523 15 14 15.4477 14 16C14 16.5523 13.5523 17 13 17C12.4477 17 12 16.5523 12 16C12 15.4477 12.4477 15 13 15ZM11 12C11.5523 12 12 12.4477 12 13C12 13.5523 11.5523 14 11 14C10.4477 14 10 13.5523 10 13C10 12.4477 10.4477 12 11 12ZM14 4H10V8H14V4Z"/>
</svg>

<svg xmlns="http://www.w3.org/2000/svg" viewBox="0 0 24 24">
    <g>
        <path fill="none" d="M0 0H24V24H0z"/>
        <path d="M17 2v2h-1v14c0 2.21-1.79 4-4 4s-4-1.79-4-4V4H7V2h10zm-3 8h-4v8c0 1.105.895 2 2 2s2-.895 2-2v-8zm-1 5c.552 0 1 .448 1 1s-.448 1-1 1-1-.448-1-1 .448-1 1-1zm-2-3c.552 0 1 .448 1 1s-.448 1-1 1-1-.448-1-1 .448-1 1-1zm3-8h-4v4h4V4z"/>
    </g>
</svg>
